storage/app/icons/phosphoricons/fill/tray-arrow-up-fill.svg

<svg xmlns="http://www.w3.org/2000/svg" fill="currentColor" viewBox="0 0 256 256"><path d="M208 32H48a16 16 0 0 0-16 16v160a16 16 0 0 0 16 16h160a16 16 0 0 0 16-16V48a16 16 0 0 0-16-16M90.34 98.34l32-32a8 8 0 0 1 11.32 0l32 32a8 8 0 0 1-11.32 11.32L136 91.31V152a8 8 0 0 1-16 0V91.31l-18.34 18.35a8 8 0 0 1-11.32-11.32M208 208H48v-40h28.69L96 187.31a15.86 15.86 0 0 0 11.31 4.69h41.38a15.86 15.86 0 0 0 11.31-4.69L179.31 168H208z"/></svg>

<svg xmlns="http://www.w3.org/2000/svg" viewBox="0 0 256 256" fill="currentColor"><path d="M208,32H48A16,16,0,0,0,32,48V208a16,16,0,0,0,16,16H208a16,16,0,0,0,16-16V48A16,16,0,0,0,208,32ZM90.34,98.34l32-32a8,8,0,0,1,11.32,0l32,32a8,8,0,0,1-11.32,11.32L136,91.31V152a8,8,0,0,1-16,0V91.31l-18.34,18.35A8,8,0,0,1,90.34,98.34ZM208,208H48V168H76.69L96,187.31A15.86,15.86,0,0,0,107.31,192h41.38A15.86,15.86,0,0,0,160,187.31L179.31,168H208v40Z"/></svg>
